X:1
T:Piano Sonata in C major
T:Piano Sonata in C major
T:Op. 9
T:Wilhelm Bauck
T:Rewrited by Alexander
C:Wilhelm Bauck
Z:Rewrited by Alexander
%%score { ( 1 4 ) | ( 2 3 ) }
L:1/8
Q:1/4=118
M:4/4
K:C
V:1 treble nm="Piano" snm="P-no"
V:4 treble 
V:2 bass 
V:3 bass 
V:1
"^Allegro moderato."!p! EGc |:!<(! (e3 d{/d} cBc.e) | (G3 B/A/ G2) G2!<)! | %3
!p!!<(! (f3 e{/e} d^cd.f) | (G3 B/A/ G2) G2!<)! |!mp!!<(! (g3 f edcB!<)! | %6
!mf! .A)!p! (^c.d) (e.f) (^g.a) (e |!<(! =g.f) z e (e.d) z c | %8
 (c B2 A!<)!!mp! .G)!p!!>(!(^FG=F)!>)! |!p!!<(!{/E} (e3 d{/d} cBc.e) | (G3 B/A/ G2) G2!<)! | %11
!p!!<(! (f3 e{/e} d^cd.f) | (G3 B/A/ G2) G2!<)! |!mp!!<(! g3 f edcB | [Aa]3 g fedc!<)! | %15
!mf! .B b2 _a"_cresc." gf_ed | cbc'a ^f_ecA |!f!!<(! G2 z2 z/ B/c/d/ e/^f/g/a/ | %18
 b/c'/^c'/d'/!<)!!f! !>!e'/d'/b/g/ !>!=c'/b/g/d/ !>!b/a/^f/d/ |!f! g z z2 z/ b/a/g/ ^f/e/d/^c/ | %20
 B/A/e/d/ ^c/B/A/G/!>(! ^F/E/A/G/ F/E/D/^C/!>)! | %21
!p!!<(! z/ (D/^F/D/) z/ (F/A/F/) z/ (G/_B/G/) z/ (E/G/E/)!<)! | %22
!p! z/!>(! (^F/^E/F/) z/ (F/d/F/) z/ (G/d/G/)!>)!!p! z/ (G/e/G/) | %23
 z/ (^F/A/d/) z/ (d/"_cresc."_e/d/) z/ (d/=e/d/) z/ (d/=f/d/) | %24
 z/ (d/^f/d/) z/ (d/g/d/) z/ (d/a/d/) z/ (d/b/d/) |!f! (3c'bd' (3c'^ga (3a'g'^f' (3e'd'c' | %26
 (3bag (3^fed (3cA^A (3Bc^c | ([Bd]3 g) (g.b)(b.d') | (d'2 e2) z"^♯" (!turn!ac'.b) | %29
 ba z g (g^f) z e | (d3 ^f/e/!mf!!<(! d).d.d.d!<)! |!f! (d3 g) (g.b)(b.d') | (d'2 e2) z (c'ba) | %33
 (g2{ag} ^fg) (b3 a) | g2 z2!mf! z!<(! (B,C.^C)!<)! |!f! ([B,D]3 G) (G.B)(B.d) | %36
 (d2 E3)"^♯""^" (Ec.B) | (BA) z G (G^F) z E | (D3 ^F/E/)!mf! (D!<(!d).d.d!<)! | %39
!f! (d3 g) (g.b)(b.d') | d'2 e3 c'ba | (g2{ag} ^fg bf)ge |"^""^♯"!>(! (d4 d'3 ^f)!>)! | %43
!p! .g!<(!g'/^f'/ e'/d'/c'/b/ a/g/^f/g/ f/g/^g/a/!<)! |!p! (b.=a) z!>(! .e' (e'.^f) z .d'!>)! | %45
!p! (c'.b)"_cresc." b'/a'/g'/^f'/ g'/f'/e'/^d'/ e'/=d'/c'/b/ | %46
 (b.a)!mf! z"_dim." .e' (e'.d') z .^f |!p! .g"_leggiero" z B/d/a/.g/ z2 b/d'/a'/.g'/ | %48
!mp! ^f'/!>(!e'/d'/c'/ b/a/g/^f/ e/d/c/B/ A/G/^F/A/!>)! |!p! G"_cresc." z B,/D/A/.G/ z2 B/d/a/.g/ | %50
 ^f/e/d/e/ f/g/a/b/ c'/b/a/b/ c'/d'/e'/^f'/ | %51
!f! g'/d'/^c'/d'/ ^d'/e'/^e'/^f'/ g'/=d'/c'/d'/ ^d'/=e'/^e'/f'/ | %52
 .g' z!ff! .[Acd^f] z .[GBdg] z z2 :|!f! (G3 D _EB,C.G,) |[K:bass] (_E,3 G,/F,/) E,2 z E, | %55
 D,2"_dim." z G, C,2 z G, | .B,,2 .G,2 z4 |[K:treble]!p! c2 z g _B2 z g | %58
 .A2!p! ._e'2 z!<(! (e'c'a!<)! | %59
!mp! .g)!p!!<(!(^c'/d'/ =c'/_b/a/g/)!<)!!p! .^f!<(!(=b/c'/ _b/a/g/f/)!<)! |!mp! g2 .[_Bdg]2 z4 | %61
[K:bass]!f! (D3 A, _B,^F,G,.D,) | (_B,,3 D,/C,/ B,,2) z B,, | A,,2"_dim." z D, G,,2 z D, | %64
 .^F,,2 .D,2 z2[K:treble]!p!"^dolce" d2 | (d'3 _b) (Pag).g.g | (^f3 a/g/ f2) z f | %67
 (_ed').d'.d' (c'.e) z (!>!e | .d)(!>!c'._b)(!>!d .^c)(!>!b.=c)(a |!<(! _B)(dg^f ga_b.a)!<)! | %70
!p! (a!>(!.g) z _b (b.a) z g!>)! |!p! ^f/d/e/f/ g/a/_b/c'/ d'3 ^f | %72
!<(! .g.^f.g.a{/c'} ._b.a.b.[gc']!<)! |!mp! .[^fd'] [fd']2 [fd']2- [fd']2!p! f | %74
!<(!{/a} .g.^f.g.a{/c'} ._b.a.b.[gc']!<)! | %75
!mp! !>![^fd']!>(!a/f/ d/^c/d/=c/ _B/g/d/B/ G/d/B/G/!>)! | %76
!p! ^F/!>(!d/A/F/ D/^C/D/=C/ _B,/G/D/B,/ G,/D/B,/G,/!>)! | %77
!p!!<(! ^F, z [G,_B,D] z [G,B,D] z [_Bdg] z!<)! |!mp! [Ad^f] z .[dfad']2 z4 | %79
!p! D3 C!<(!{/C} _B,A,B,D | C>_E!<)!!mp! G2 z4 |!p! [A,C] z !>![A,F]3!<(! [A,F][_B,=E][C_E]!<)! | %82
!p! ([_B,D]2!p! F_E [B,D]) z F2 |"_dolce"!p! (f3 d _BF).F.F | (!>!F3 A/G/) F2[K:bass] z .F,, | %85
 .A,,2 z .F,, .C,2 z .F,, | .D,2 ._B,,2 z[K:treble] (dg_b) | d'3 a{/c'} _babd' | %88
 (f3 a/g/ f2)[K:bass] z .F,, | .A,,2 z .F,, .C,2 z .F,, | ._B,,2 z2 z[K:treble] fd_B | %91
!<(! F3 F ^F3 F!<)! |!mf! .G!>(!.[_B,DG].[B,DG].[B,DG] .[DFG].[DFG].[DFG].[DFG] | %93
 .[C_EG].[CEG].[CEG].[CEG] .[B,FG].[B,FG].[B,FG].[B,FG]!>)! |!p! .[C_EG]2 z2 z _ecG | %95
!<(! _E2 z E =E2 z E!<)! |!mf! !>!F!p!.[CF]!<(!.[CF].[CF] .[CF].[CF].[CF].[CF] | %97
 .[CF].[CF].[CF].[CF] .[C_E^F].[CEF].[CEF].[CEF] | %98
 .[C_EG].[CEG].[CEG].[CEG] .[CEA].[CEA].[CEA].[CEA]!<)! |!mp! [_B,G] [B,G]2 [B,G]2 [B,D]2 .B, | %100
{/D} .C.B,.C.D{/F} ._E.D.E.[CF] | [B,G] z z .[Bg]2 [Bg]2 B |!<(!{/d} .c.B.c.d{/f} ._e.d.e.[cf] | %103
 [Bdg] z [c_eg] z [Bdg] z [egc'] z!<)! |!mf! [dgb] z z"_dim." (([gc'] [fb]2)) z (([_ea] | %105
 [dg]2)) z (([cf] [B=e]2)) z d- | (dc).c.c c B2 A- | (AG!p!c!<(!B edfe | %108
 g^f!<)!!mp!!>(!a^g ba=g=f)!>)! |!p!!<(! (e3 d{/d} cBc.e) | (G3 B/A/ G2) z2!<)! | %111
!p!!<(! (f3 e{/e} d^cd.f) | ((G3 B/A/ G2)) z!mp! G!<)! | (g3!mp!"_dim." f edcB | %114
 A) (^c!p!"_cresc.".d) (e.f) (^g.a) e |!<(! (=g.f)!mp! z"_dim." e (e.d) z c | %116
 (c B2 A!<)!!mp! .G)!p!!>(!(^FG=F)!>)! |!p!!<(!{/E} (e3 d{/d} cBc.e) | ((G3 B/A/ G2)) z G!<)! | %119
!p!!<(! (f3 e{/e} d^cd.f) | ((G3 B/A/ G2)) z G!<)! |!mp!!>(! g3 f edcB!>)! | %122
!p!!<(! ABc^c defd!<)! |!p! (d.c) (c4 ed) | (c3 c' b_bab) | (^g.a) z a _bae=g | (g.f) f3 (^ga.=g) | %127
 (g.f) z e!<(! (e.d) z c | B/G/A/B/ c/d/e/f/ g/a/b/c'/ d'/e'/f'/^f'/!<)! | %129
!mf! g'2 z2!mf! z/ ^f'/g'/=f'/ e'/d'/c'/b/ |{/a} a'2 z2!mf! z/ ^g'/a'/=g'/ f'/e'/d'/c'/ | %131
!>(! .bg'/^f'/ e'/d'/c'/b/ ^g/a/c'/b/ d'/c'/e'/d'/!>)! |!p!!>(! g2 z2 z4!>)! | %133
!p!!<(! ([EG]3 c) (c.e)(e.g)!<)! |!p!!>(! (g2!>)!!p! A2) z"^""^♯" (dfe) | (e.d) z c (c.B) z A | %136
 (G3 B/A/!pp! G)!<(!.G.G.G!<)! |!p!!<(! (G3 c) (c.e)(e.g)!<)! |!mp!!>(! (g2 A2) z!>)!!p! (fed) | %139
 c2{dc} Bc e3 d | c2 z2 z!<(! (ef^f)!<)! |!mp! ([eg]3 c') (c'.e')(e'.g') | (g'2 a2) z (af'e') | %143
!>(! (e'.d') z c' (c'.b) z a!>)! |!mf! (g3 b/a/ .g)!>(! G^F=F!>)! |!mp! (E G2 c) (c.e)(e.g) | %146
 (g2 A2) z ([Af][Ge][Fd]) | [Ec]2{dc} Bc e3 d |!p! .cc'/b/ a/g/f/e/ d/c/B/c/ B/c/^d/e/ | %149
 (e.=d) z a!<(! (a.B) z g | (f.e)!<)!!f! e'/d'/c'/b/!>(! c'/b/a/^g/ a/=g/f/e/!>)! | %151
!p! (e.d) z a (a.g) z .B |!p!!<(! .c"_leggiero" z E/G/d/.c/ z2 e/g/d'/.c'/!<)! | %153
!p!!>(! b/a/g/f/ e/d/c/B/ A/G/F/E/ D/C/B,/D/!>)! |!p! x6 E/G/d/.c/ | %155
 B/G/A/B/"_cresc." c/^c/d/^d/ e/f/^f/g/ ^g/a/^a/b/ | %156
!f! c'/g/^f/g/ ^g/a/^a/b/ c'/^c'/d'/^d'/ e'/f'/g'/^g'/ | a' z!ff! [dfgb] z [cegc'] z z2 |] %158
[K:G][M:4/4][Q:1/4=92]"^Andante."!p! (B6 g>e) | (d6 b>g) | (g2 f4) (c'>a) |!<(! (^g2 a4 c'>a)!<)! | %162
 [dgd']6!mp! ((!>![gc']2 | [fb])) z!>(! ((!>![ea]2 [dg])) z!>)!!p! ((!>![d=f^g]2 | %164
 [d^fa]2)) (!>!f3 a[^cg]e) | (([^ce]4 d2)) z2 :|!p! (A6 d>^c) | (e2 d4) (d>=c) | (c2 _B4 e>d) | %169
 (d2 c4 c>_B) |!<(! (A6 =f>d) | [_B_b]6!<)!!p! ([d-=b]2 | [da]2) (^c>d- [d=f]2 [ce]2 | %173
 d2) (.[D=F]2 .[DF]2 .[DF]2) | (.[_Bd]2 .[Bd]2 .[Bd]2 .[Bd]2) | (.[_Bd]2 .[Bd]2 .[Bd]2 .[Bd]2) | %176
 !>!_e4- (e=e=f^f |!mf!!>(! agcd =f_eGA)!>)! |!p! (_B>d =f2 .[_Bd]2) .[Bd]2 | %179
 .[_Bd]2 .[Bd]2 .[=FBd]2 .[FBd]2 | !>!d4- d!<(!(c_ed) | (d^f!<)!!mf!a!>(!g f_edc)!>)! | %182
!p! (_B2{cBA} Bc d2) z2 | z2({=ed^c} d>=f a4) | z2"_cresc."({c_BA} B>G g4) | z2({agf} g>_b a3 ^c) | %186
!mf! d2!>(! z2 z2!>)!!p! c>_B | [FA]2 z2 z2 ([G_Be]>!>(![FAd])!>)! | %188
!mf! [FAd] z"_dim." (([FAd]2 [EGc]2 [G=B-]2)) | %189
[Q:1/4=91] (B"_smorz."[Q:1/4=90]A[Q:1/4=89]c[Q:1/4=88]B[Q:1/4=87] d[Q:1/4=86]c[Q:1/4=85]e[Q:1/4=84]d) | %190
!p![Q:1/4=92] (B6 g>e) | (d6 b>g) | (g2 f4) (c'>a) |!<(! (^g2 a4 c'>a)!<)! | [dgd']6!p! ([=fd']2 | %195
 [ec']2 [db]2 [ca]2 [^c^a]2 | [db]2) (b3 d'c'a | g) z (G2 A2 ^A2 | %198
 [GB]2)"_smorz."[Q:1/4=90] (!>![GB]3[Q:1/4=88]!>(! [=Fd][^Fc][Q:1/4=86]A) | %199
[Q:1/4=84] G2[Q:1/4=82] z2[Q:1/4=80] [DB]2[Q:1/4=78] z2!>)! |[Q:1/4=76]!pp! [B,G]8- | %201
 [B,G]2 z2 z4 |] z8 | z8 | z8 | z8 | z8 | z8 | z8 | z8 | z8 | z8 | z8 | z8 | z8 | z8 | z8 | z8 |] %218
V:2
 z z2 |: (C,G,CG,) (E,G,CG,) | (C,G,CG,) (E,G,CG,) | (D,G,B,G,) (F,G,B,G,) | %4
 (D,G,B,G,) (F,G,B,G,) | (E,G,CG,) (E,G,CG,) | F,2 z2 z4 | z2 [F,D]2 z2 [^F,D]2 | z (G,DC B,2) z2 | %9
 (C,G,CG,) (E,G,CG,) | (C,G,CG,) (E,G,CG,) | (D,G,B,G,) (F,G,B,G,) | (D,G,B,G,) (F,G,B,G,) | %13
 (E,G,CG,) (E,G,CG,) | (F,A,^CA,) (F,A,DA,) | (F,_A,DA,) (F,A,DA,) | ^F,^A,_EC A,F,EC | %17
 !>!B,/G,/A,/B,/ C/D/E/^F/ !>!G z z2 | z2 [D,G,B,]2 [D,G,B,]2 [D,A,C]2 | %19
 !>![G,B,]/G,/A,/B,/ C/D/E/^F/ !>!G z z2 | [^C,E,G,]2 z2 [A,,G,]2 z2 | (^F,2 C2 _B,2 ^C2 | %22
 D2 =C2 =B,2 _B,2 | A,2 [G,_B,]2 [^G,=B,]2 [A,C]2- | [A,C]2 [G,B,]2 [^F,C]2 [G,B,]2) | %25
 [^F,A,]2 z2 z4 | z8 |[K:treble] (G,DGD) (B,DGD) | (CEGE) (CEAE) | (CEAE) (^CGAG) | %30
 (D^FAF) (CDFD) | (B,DGD) (B,DGD) | (^G,B,EB,) (A,ECE) | (DGBG) (D^FcF) | (GBdB) G2 z2 | %35
[K:bass] (G,,B,,G,D,) (G,,D,G,D,) | (C,E,G,E,) (C,E,A,E,) | (C,E,A,E,) (^C,E,A,E,) | %38
 (D,^F,A,F,) (C,D,F,D,) | (B,,D,G,B,) (G,B,DB,) | (^G,B,EB,) A,(A,A,,A,) | (D,G,B,G,) (D,G,B,G,) | %42
 (D,G,B,G,) (D,^F,CA,) | !>!G,.[G,B,].[G,B,].[G,B,] !>!E,.[G,B,].[G,B,].[G,B,] | %44
 !>!C,.[E,A,].[E,A,].[E,A,] !>!D,.[A,C].[A,C].[A,C] | %45
 !>!G,.[G,B,].[G,B,].[G,B,] !>!E,.[G,B,].[G,B,].[G,B,] | %46
 !>!E,.[G,^C].[G,C].[G,C] !>!D,.[A,=C].[A,C].[A,C] |[K:treble] G,/!<(!B,/D/G/ z2 G/B/d/g/ z2!<)! | %48
 z2[K:bass] .[D,A,C]2 .[D,A,C]2 .[D,A,C]2 | G,,/B,,/D,/G,/ z2 G,/B,/D/G/ z2 | %50
 z2[K:treble] .[DAc]2 .[DAc]2 .[DAc]2 | [GB]2 z .[DAc] .[GB]2 z .[DAc] | %52
 .[GB] z[K:bass] .[D,D] z .[G,,G,] z z2 :| (G,3 D, _E,B,,C,.G,,) | (_E,,3 G,,/F,,/) E,,2 z E,, | %55
 D,,2 z G,, C,,2 z G,, | .B,,,2 .G,,2 z4 |[K:treble] [_EG]2 z2 [DG]2 z2 | .[CG]2 z2 z2 .[_EG]2 | %59
 [DG_B]2 z2 [DAc]2 z2 | .[G_B]2 .G,2 z4 |[K:bass] (D,3 A,, _B,,^F,,G,,.D,,) | %62
 (_B,,,3 D,,/C,,/ B,,,2) z B,,, | A,,,2 z D,, G,,,2 z D,, | .^F,,,2 .D,,2 z4 | %65
[K:treble] z .[_Bd].[Bd].[Bd] .[Bd].[Bd].[Bd].[Bd] | z .[Ad].[Ad].[Ad] .[Ad].[Ad].[Ad].[Ad] | %67
 !>!G.[_Bd].[Bd].[Bd] !>!A.c.c.c | .^F.A.G._B .^E.G.F.A | G _B2 A B^FG=F | %70
 !>!=E.[_Bd].[Bd].[Gd] !>!_E.[G^c].[Gc].[Gc] | !>!D.[^FA].[FA].[FA] (!>!D^cd).[=cd] | %72
 .[_Bd].[Ad].[Bd].[^Fd] .[Gd].[Fd].[Gd]._E |[K:bass] D/D,/E,/^F,/ G,/A,/_B,/C/ (D^CD).[=CD] | %74
 .[_B,D].[A,D].[B,D].[^F,D] .[G,D].[F,D].[G,D]._E, | D,2 !>![^F,D]2 [G,D]2 [_B,D]2 | %76
 D z !>![^F,,D,]2 [G,,D,]2 [_B,,D,]2 | %77
 D,/D,,/E,,/^F,,/ G,,/A,,/_B,,/C,/ D,/D,/E,/^F,/ G,/A,/_B,/C/ | D z .[D,A,D]2 z4 | =F,8 | %80
 [_E,G,]4 z4 | F, z !>![F,,F,]3 F,,G,,A,, | _B,,2 (([F,,F,]2 [B,,F,])) z z2 | %83
 [_B,D]F,[A,^C]F, [B,D]F,[=B,D]F, | [C_E]F,[=B,D]F, [CE]F,[B,D]F, | [C_E]F,[CE]F, [A,E]F,[A,E]F, | %86
 [_B,D]F,[DF]F, [B,D]F,[B,D]F, | [_B,D]F,[DF]F, [B,D]F,[DF]F, | [C_E]F,[=B,D]F, [CE]F,[B,D]F, | %89
 [C_E]F,[CE]F, [A,E]F,[A,E]F,- | .[F,_B,D].[B,D].[B,D].[B,D] .[B,D].[B,D].[B,D].[B,D] | %91
 .[_B,D].[B,D].[B,D].[B,D] .[_A,C].[A,C].[A,C].[A,C] | .[G,=B,] z !>!G,,3 .G,,.A,,.B,, | %93
 C,2 z G,, D,2 z G,, | !>!_E,.[C,E,G,].[C,E,G,].[C,E,G,] .[C,E,G,].[C,E,G,].[C,E,G,].[C,E,G,] | %95
 .[C,G,].[C,G,].[C,G,].[C,G,] .[_B,,C,G,].[B,,C,G,].[B,,C,G,].[B,,C,G,] | %96
 .[A,,C,F,]2 z2 z F,C,_B,, | A,,2 z A,, _A,,2 z A,, | G,,2 z G,, ^F,,2 z F,, | %99
 G,,A,,/=B,,/ C,/D,/_E,/F,/ G,.^F,.G,.[=F,G,] | %100
 .[_E,G,].[D,G,].[E,G,].[B,,G,] .[C,G,].[B,,G,].[C,G,]._A,, | %101
 G,,/G,/=A,/B,/ C/D/_E/F/ .G.^F.G.[=FG] | .[_EG].[DG].[EG].[B,G] .[CG].[B,G].[CG]._A, | %103
 G,A,/B,/ C/D/_E/F/ G/G,/A,/B,/ C/D/E/F/ | G2[K:treble] z (_e d2) z (c | B2) z (A G2) z [FA] | %106
 [EG]2 [^D^F]2 [=D=F]2 [CE]2 | [B,DF]2 z2 z4 | z8 |[K:bass] (C,G,CG,) (E,G,CG,) | %110
 (C,G,CG,) (E,G,CG,) | (D,G,B,G,) (F,G,B,G,) | (D,G,B,G,) (F,G,B,G,) | (E,!mp!G,CG,) (E,G,CG,) | %114
 F,2 z2 z4 | z2 [F,D]2 z2 [^F,D]2 | z (G,DC B,2) z2 | (C,G,CG,) (E,G,CG,) | (C,G,CG,) (E,G,CG,) | %119
 (D,G,B,G,) (F,G,B,G,) | (D,G,B,G,) (F,G,B,G,) | (E,G,CG,) (E,G,CG,) | (F,A,FA,) (F,A,DA,) | %123
 (G,CEC) (^G,B,FB,) | (A,CEC) (=G,CEC) | (F,CEC) (E,A,^CA,) | (D,A,DA,) (F,A,DA,) | %127
 (D,A,DA,) (F,A,DA,) | (F,G,B,G,) (F,G,B,G,) | z/!mp! E,/!<(!F,/G,/ A,/B,/C/D/!<)! E2 z2 | %130
 z/!mp! F,/!<(!G,/A,/ B,/C/D/E/!<)![K:treble] .F.[EG].[FA].[^FA] | [GB]2 z2 [D^F]2 z2 | %132
[K:bass] .G,^F,/G,/ A,/G,/=F,/E,/ D,/C,/B,,/A,,/ G,,/F,,/E,,/D,,/ | (C,,C,E,G,) (E,G,CG,) | %134
 (F,A,CA,) (F,A,DA,) | (F,A,DA,) (^F,CDC) | (G,B,DB,) (F,G,B,G,) | (E,G,CG,) (C,G,CG,) | %138
 (^C,E,A,E,) (D,A,F,A,) | (G,CEC) (G,B,FB,) | (CEGE) C2 z2 |[K:treble] (CGcG) (EGcG) | %142
 (FAc^c d)AdA | (FAdA) (^Fcdc) | (GBdc) B2 z2 |[K:bass] (C,G,CG,) (E,G,CG,) | %146
 (F,A,DA,) F,(D,E,F,) | G,(G,CE) (G,B,FB,) | !>!C.[CE].[CE].[CE] !>!A,.[CE].[CE].[CE] | %149
 !>!F,.[A,D].[A,D].[A,D] !>!G,.[DF].[DF].[DF] | !>![CE].[CE].[CE].[CE] !>!A,.[CE].[CE].[CE] | %151
 !>!A,.[C^F].[CF].[CF] !>!G,.[B,=F].[B,F].[DF] | C,/E,/G,/C/ z2[K:treble] C/E/G/c/ z2 | %153
[K:bass] z2 .[G,,D,F,]2 .[G,,D,F,]2 .[G,,D,F,]2 | z2 E,/G,/D/.C/ z2 x2 | %155
 z2 .[G,DF]2 .[G,DF]2 .[G,DF]2 | [CE]2 z [G,D] [CE]2 z [G,D] | [CE] z [G,,G,] z [C,,C,] z z2 |] %158
[K:G][M:4/4] (G,2 B,>E D4) | (G,2 B,>E D4) | (A,2 ^C>E D4) | (A,2 ^C>E D4) | %162
[K:treble] (B,2!mp! D>G B) z (!>!e2 | d) z (!>!c2 B) z (_B2 | A2) (!>!D3 FEG) | %165
 (([A,G]4 [DF]2)) z2 :|[K:bass] (D,2 =F,>^G, A,4) | (D,2 =F,>^G, A,4) | (D,2 =F,>A, _B,4) | %169
 (E,2 G,>=B, C4) | (^F,2 A,>^C D4) | (G,2 _B,>^C!mp! D2) ([^G,=F]2 | (=F2) E>F A2 G2 | %173
 [D=F]2) z2 z4 |"_Cantabile"{/_B,} !>!=F4-!<(! (FEF^F!<)! |!mf!!>(! .G.=F._E.D) (C_B,D>B,)!>)! | %176
!p! (_B,2 A,2) .[A,C=F]2 .[A,CF]2 | .[A,C=F]2 .[A,CF]2 .[A,CF]2 .[C_EF]2 | %178
 =F4-!<(!!<(! FEF^F!<)!!<)! |!mf!!>(! G=F_ED C!>)!!p!_B,!>!D>B, | (_B,2 A,2) .[A,C^F]2 .[A,CF]2 | %181
 .[A,CF]2 .[A,CF]2 .[A,CF]2 .[A,CF]2 | .[DG]2 .[_B,D]2 .[B,D]2 .[B,D]2 | %183
 .[A,D]2 .[A,D]2 .[A,D]2 .[A,D]2 | .[G,D]2 .[G,D]2 .[G,D]2 .[G,D]2 | %185
 .[G,^C]2 .[G,C]2 .[G,C]2 .G,2 | ^F,2 (^G,>A, D4-) | D2 (^G,>A, D2) (=G,>D,) | D6 D2 | C8 | %190
 (G,2 B,>E D4) | (G,2 B,>E D4) | (A,2 ^C>E D4) | (A,2 ^C>E D4) | %194
[K:treble] (B,2!mp! D>G B) z ([B,G-]2 | G6 x2 | [DG]2) G3 BAc | B z[K:bass] (B,2 C2 ^C2 | %198
 D2) (!>!G,3 ^G,A,C) | B,2 (^C,>D, G,2) (C,>D,) | G,,8- | G,,2 z2 z4 |] z8 | z8 | z8 | z8 | z8 | %207
 z8 | z8 | z8 | z8 | z8 | z8 | z8 | z8 | z8 | z8 | z8 |] %218
V:3
 x3 |: x8 | x8 | x8 | x8 | x8 | x8 | x8 | x8 | x8 | x8 | x8 | x8 | x8 | x8 | x8 | x8 | x8 | x8 | %19
 x8 | x8 | D,8 | D,8 | D,8 | D,8 | D,2 x6 | x8 |[K:treble] x8 | x8 | x8 | x8 | x8 | x8 | x8 | x8 | %35
[K:bass] x8 | x8 | x8 | x8 | x8 | x8 | x8 | x8 | x8 | x8 | x8 | x8 |[K:treble] x8 | x2[K:bass] x6 | %49
 x8 | x2[K:treble] x6 | x8 | x2[K:bass] x6 :| x8 | x8 | x8 | x8 |[K:treble] x8 | x8 | x8 | x8 | %61
[K:bass] x8 | x8 | x8 | x8 |[K:treble] x8 | x8 | x8 | x8 | x8 | E4 _E4 | x8 | x8 |[K:bass] x8 | %74
 x8 | x8 | x8 | x8 | x8 | _B,,3 C, D,_E,D,B,, | x8 | x8 | x8 | x8 | x8 | x8 | x8 | x8 | x8 | x8 | %90
 x8 | x8 | x8 | x8 | x8 | x8 | x8 | x8 | x8 | x8 | x8 | x8 | x8 | x8 | x2[K:treble] x6 | x8 | x8 | %107
 x8 | x8 |[K:bass] x8 | x8 | x8 | x8 | x8 | x8 | x8 | x8 | x8 | x8 | x8 | x8 | x8 | x8 | x8 | x8 | %125
 x8 | x8 | x8 | x8 | x8 | x4[K:treble] x4 | x8 |[K:bass] x8 | x8 | x8 | x8 | x8 | x8 | x8 | x8 | %140
 x8 |[K:treble] C4 E4 | F6 z2 | F4 ^F4 | G6 x2 |[K:bass] C,4 E,4 | F,4 x4 | x8 | x8 | x8 | x8 | %151
 A,4 G,4 | x4[K:treble] x4 |[K:bass] x8 | C,,/E,,/G,,/C,/ z2 C,/E,/G,/C/ z2 | x8 | x8 | x8 |] %158
[K:G][M:4/4] x8 | x8 | x8 | x8 |[K:treble] x8 | x8 | x2 A,4 A,2 | x8 :|[K:bass] D,8 | D,8 | D,8 | %169
 E,8 | x8 | G,6 x2 | A,6 A,2 | x8 | x8 | x8 | x8 | x8 | [_B,D]2 [B,D]2 z4 | x8 | x8 | x8 | %182
 G,6 G,2 | =F,6 F,2 | E,6 E,2 | E,6 E,2 | D,2 z2 z2 =G,2 | D,2 x6 | D,4 x4 | D,8 | x8 | x8 | x8 | %193
 x8 |[K:treble] x8 | C2 D2 E2 _E2 | x2 (D4 ^D2 | E) x[K:bass] E,6 | D,2 D,6 | G,2 x6 | x8 | x8 |] %202
 x8 | x8 | x8 | x8 | x8 | x8 | x8 | x8 | x8 | x8 | x8 | x8 | x8 | x8 | x8 | x8 |] %218
V:4
 x3 |: x8 | x8 | x8 | x8 | x8 | x8 | x8 | x8 | x8 | x8 | x8 | x8 | x8 | x8 | x8 | x8 | x8 | x8 | %19
 x8 | x8 | x8 | x8 | x8 | x8 | x8 | x8 | x8 | x4 x x/4 x/4 x/4 x/4 x2 | x8 | x8 | x8 | x8 | x8 | %34
 x8 | x8 | x5 x/4 x/4 x/4 x/4 x2 | x8 | x8 | x8 | x8 | x8 | x3 x/4 x/4 x/4 x/4 x4 | x8 | x8 | x8 | %46
 x8 | x8 | x8 | x8 | x8 | x8 | x8 :| x8 |[K:bass] x8 | x8 | x8 |[K:treble] x8 | x8 | x8 | x8 | %61
[K:bass] x8 | x8 | x8 | x6[K:treble] x2 | x8 | x8 | x8 | x8 | x8 | x8 | x8 | x8 | x8 | x8 | x8 | %76
 x8 | x8 | x8 | x6 _B,2 | _B,4 x4 | x8 | x2 A,2 x4 | x8 | x6[K:bass] x2 | x8 | x5[K:treble] x3 | %87
 x8 | x6[K:bass] x2 | x8 | x5[K:treble] x3 | x8 | x8 | x8 | x8 | x8 | x8 | x8 | x8 | x8 | x8 | x8 | %102
 x8 | x8 | x8 | x8 | x8 | x8 | x8 | x8 | x8 | x8 | x8 | x8 | x8 | x8 | x8 | x8 | x8 | x8 | x8 | %121
 x8 | x8 | x8 | x8 | x8 | x8 | x8 | x8 | x8 | x8 | x8 | x8 | x8 | x4 x x/4 x/4 x/4 x/4 x2 | x8 | %136
 x8 | x8 | x8 | x8 | x8 | x8 | x8 | x8 | x8 | x8 | x8 | x8 | x8 | x8 | x8 | x8 | x8 | x8 | x8 | %155
 x8 | x8 | x8 |][K:G][M:4/4] G6 B2 | B6 d2 | c6 c2 | c6 [df]2 | x8 | x8 | x8 | x8 :| =F6 F2 | %167
 =F6 F2 | =F6 F2 | G6 G2 | F6 A2 | x8 | x8 | x8 | x8 | x8 | c2!<(! z2 z4!<)! | x8 | x8 | x8 | %180
 [^Fc]2 [Fc]2 z4 | x8 | x8 | x8 | x8 | x8 | x6 G2 | x8 | x8 | F8 | G6 B2 | B6 d2 | c6 c2 | %193
 c6 [df]2 | x8 | x8 | x8 | x2 G6- | x8 | x8 | x8 | x8 |] x8 | x8 | x8 | x8 | x8 | x8 | x8 | x8 | %210
 x8 | x8 | x8 | x8 | x8 | x8 | x8 | x8 |] %218

